toolkits/global/packages/global-context/img/icons/social-youtube.svg

<svg height="24" viewBox="0 0 24 24" width="24" xmlns="http://www.w3.org/2000/svg"><path d="m10.1415 14.3973208-.0005625-5.19318431 4.863375 2.60554491zm9.963-7.92753362c-.6845625-.73643756-1.4518125-.73990314-1.803375-.7826454-2.518875-.18714178-6.2971875-.18714178-6.2971875-.18714178-.007875 0-3.7861875 0-6.3050625.18714178-.352125.04274226-1.1188125.04620784-1.8039375.7826454-.5394375.56084773-.7149375 1.8344515-.7149375 1.8344515s-.18 1.49597903-.18 2.99138042v1.4024082c0 1.495979.18 2.9913804.18 2.9913804s.1755 1.2736038.7149375 1.8344515c.685125.7364376 1.5845625.7133337 1.9850625.7901542 1.44.1420891 6.12.1859866 6.12.1859866s3.78225-.005776 6.301125-.1929178c.3515625-.0433198 1.1188125-.0467854 1.803375-.783223.5394375-.5608477.7155-1.8344515.7155-1.8344515s.18-1.4954014.18-2.9913804v-1.4024082c0-1.49540139-.18-2.99138042-.18-2.99138042s-.1760625-1.27360377-.7155-1.8344515z" fill="#666" fill-rule="evenodd"/></svg>

<?xml version="1.0" encoding="UTF-8"?>
<svg width="24px" height="24px" viewBox="0 0 24 24" version="1.1" xmlns="http://www.w3.org/2000/svg" xmlns:xlink="http://www.w3.org/1999/xlink">
    <!-- Generator: Sketch 63.1 (92452) - https://sketch.com -->
    <title>icon-icon-social-youtube</title>
    <desc>Created with Sketch.</desc>
    <defs>
        <path d="M10.1415,14.3973208 L10.1409375,9.20413649 L15.0043125,11.8096814 L10.1415,14.3973208 Z M20.1045,6.46978718 C19.4199375,5.73334962 18.6526875,5.72988404 18.301125,5.68714178 C15.78225,5.5 12.0039375,5.5 12.0039375,5.5 C11.9960625,5.5 8.21775,5.5 5.698875,5.68714178 C5.34675,5.72988404 4.5800625,5.73334962 3.8949375,6.46978718 C3.3555,7.03063491 3.18,8.30423868 3.18,8.30423868 C3.18,8.30423868 3,9.80021771 3,11.2956191 L3,12.6980273 C3,14.1940063 3.18,15.6894077 3.18,15.6894077 C3.18,15.6894077 3.3555,16.9630115 3.8949375,17.5238592 C4.5800625,18.2602968 5.4795,18.2371929 5.88,18.3140134 C7.32,18.4561025 12,18.5 12,18.5 C12,18.5 15.78225,18.494224 18.301125,18.3070822 C18.6526875,18.2637624 19.4199375,18.2602968 20.1045,17.5238592 C20.6439375,16.9630115 20.82,15.6894077 20.82,15.6894077 C20.82,15.6894077 21,14.1940063 21,12.6980273 L21,11.2956191 C21,9.80021771 20.82,8.30423868 20.82,8.30423868 C20.82,8.30423868 20.6439375,7.03063491 20.1045,6.46978718 Z" id="path-1"></path>
    </defs>
    <g id="icon-social-youtube" stroke="none" stroke-width="1" fill="none" fill-rule="evenodd">
        <mask id="mask-2" fill="white">
            <use xlink:href="#path-1"></use>
        </mask>
        <use id="social-youtube" fill="#666666" xlink:href="#path-1"></use>
    </g>
</svg>
